X:881
T:Last House in Connacht, The
T:Dinny O'Brien's
R:reel
C:Paddy O'Brien
S:Anna Roussel
H:An unusual version. See also #84
Z:id:hn-reel-881
M:C|
K:Dmix
=f^fdc ABcB | A2de cAGE | DAAG FADE | =FEAB cd (3efg |
(3fgf dc ABcB | A2de cAGE | DAAG FGAB | (3cBA BG A2ag :|
|: fde^c defg | ad~d2 adfd | eccB cdef | g3f gbag |
fd~d2 ABcB | A2de cAGE | DAAG FGAB | (3cBA BG A2ag :|

